X:1
T: La Gavre
N:
C:
S:
A:
O:
R:
M:6/8
K:D
I:speed 180
%W:  A
% voice 1 (1 lines, 21 notes)
K:D
M:6/8
L:1/16
d4 e2 |f2 g2 f2 e2 d2 c2 d4 A2 d4 e2 f2 g2 f2 e2 d2 c2 d6 d4 e2 |
%W:
% voice 1 (1 lines, 20 notes)
f2 g2 f2 e2 d2 c2 d4 A2 d4 e2 f2 g2 f2 e2 d2 c2 d6 d2 c2 d2 |
%W:  B
% voice 1 (1 lines, 19 notes)
B6 e4 d2 c2 B2 A2 d2 c2 d2 B2 c2 d2 e2 d2 c2 d6 d2 c2 d2 |
%W:
% voice 1 (1 lines, 18 notes)
B6 e4 d2 c2 B2 A2 d2 c2 d2 B2 c2 d2 e2 d2 c2 d6 a4 f2 |
%W:  C
% voice 1 (1 lines, 17 notes)
a4 f2 e2 f2 g2 f4 d2 a4 f2 a4 f2 g2 e2 c2 d6 a4 f2 |
%W:
% voice 1 (1 lines, 17 notes)
a4 f2 e2 f2 g2 f4 d2 a4 f2 a4 f2 g2 e2 c2 d6 B4 d2 |
%W:  D
% voice 1 (1 lines, 18 notes)
A4 d2 e2 f2 g2 f2 e2 d2 B4 d2 A4 d2 e2 d2 c2 d6 B4 d2 |
%W:
% voice 1 (1 lines, 16 notes)
A4 d2 e2 f2 g2 f2 e2 d2 B4 d2 A4 d2 e2 d2 c2 d6 ||
